editor/icons/icon_track_capture.svg

<svg height="8" viewBox="0 0 16 8" width="16" xmlns="http://www.w3.org/2000/svg"><g fill="#e0e0e0"><path d="m2.1665128.99764963c-.422625 0-.763672.34104737-.763672.76367187v4.5742187c0 .4226242.341047.7617192.763672.7617192h4.472656c.422625 0 .763672-.339095.763672-.7617192v-.9882812h-3.300781c-.1662 0-.298828-.3390943-.298828-.7617188v-1.2246094c0-.4226244.132628-.7636718.298828-.7636718h3.300781v-.8359375c0-.4226245-.341047-.76367187-.763672-.76367187z"/><path d="m9.1827441 4.7953408c.5166221-1.0415625 1.0955249-2.2117429 1.2864509-2.600401l.347137-.7066511.679654.00665.679654.00665.956945 2.3125c.526319 1.271875 1.007254 2.4334375 1.068744 2.5812497l.1118.26875h-.597215-.597214l-.332849-.6437497-.332849-.64375h-1.133826-1.133825l-.3786749.6561133-.3786747.6561134-.5922856.000137-.592285.000136zm3.1779349-.369483c.0042-.00346-.233487-.4884588-.528245-1.0777779l-.535922-1.0714891-.03691.0875c-.0203.048125-.183516.425-.362699.8375-.179182.4125-.355738.85125-.392346.975-.03661.12375-.07127.2390723-.07703.2562715-.0083.024853.188215.027989.957503.015278.532385-.0088.971429-.018823.975651-.022283z" stroke="#e0e0e0" stroke-width=".803"/></g></svg>

<?xml version="1.0" encoding="UTF-8" standalone="no"?>
<svg
   xmlns:dc="http://purl.org/dc/elements/1.1/"
   xmlns:cc="http://creativecommons.org/ns#"
   xmlns:rdf="http://www.w3.org/1999/02/22-rdf-syntax-ns#"
   xmlns:svg="http://www.w3.org/2000/svg"
   xmlns="http://www.w3.org/2000/svg"
   xmlns:sodipodi="http://sodipodi.sourceforge.net/DTD/sodipodi-0.dtd"
   xmlns:inkscape="http://www.inkscape.org/namespaces/inkscape"
   width="16"
   height="8"
   version="1.1"
   viewBox="0 0 16 8"
   id="svg6"
   sodipodi:docname="icon_track_capture.svg"
   inkscape:version="0.92.3 (2405546, 2018-03-11)">
  <metadata
     id="metadata12">
    <rdf:RDF>
      <cc:Work
         rdf:about="">
        <dc:format>image/svg+xml</dc:format>
        <dc:type
           rdf:resource="http://purl.org/dc/dcmitype/StillImage" />
        <dc:title />
      </cc:Work>
    </rdf:RDF>
  </metadata>
  <defs
     id="defs10" />
  <sodipodi:namedview
     pagecolor="#ffffff"
     bordercolor="#666666"
     borderopacity="1"
     objecttolerance="10"
     gridtolerance="10"
     guidetolerance="10"
     inkscape:pageopacity="0"
     inkscape:pageshadow="2"
     inkscape:window-width="1350"
     inkscape:window-height="593"
     id="namedview8"
     showgrid="false"
     inkscape:zoom="27.577164"
     inkscape:cx="8.347146"
     inkscape:cy="4.4012076"
     inkscape:window-x="67"
     inkscape:window-y="27"
     inkscape:window-maximized="0"
     inkscape:current-layer="svg6" />
  <path
     style="fill:#e0e0e0;fill-opacity:1"
     d="m 2.1665128,0.99764963 c -0.422625,0 -0.763672,0.34104737 -0.763672,0.76367187 v 4.5742187 c 0,0.4226242 0.341047,0.7617192 0.763672,0.7617192 h 4.472656 c 0.422625,0 0.763672,-0.339095 0.763672,-0.7617192 V 5.347259 h -3.300781 c -0.1662,0 -0.298828,-0.3390943 -0.298828,-0.7617188 V 3.3609308 c 0,-0.4226244 0.132628,-0.7636718 0.298828,-0.7636718 h 3.300781 V 1.7613215 c 0,-0.4226245 -0.341047,-0.76367187 -0.763672,-0.76367187 z"
     id="rect1389"
     inkscape:connector-curvature="0" />
  <path
     style="fill:#e0e0e0;fill-opacity:1;stroke:#e0e0e0;stroke-width:0.80299997;stroke-miterlimit:4;stroke-dasharray:none;stroke-opacity:1"
     d="M 9.1827441,4.7953408 C 9.6993662,3.7537783 10.278269,2.5835979 10.469195,2.1949398 l 0.347137,-0.7066511 0.679654,0.00665 0.679654,0.00665 0.956945,2.3125 c 0.526319,1.271875 1.007254,2.4334375 1.068744,2.5812497 l 0.1118,0.26875 H 13.715914 13.1187 L 12.785851,6.0203387 12.453002,5.3765887 H 11.319176 10.185351 L 9.8066761,6.032702 9.4280014,6.6888154 l -0.5922856,1.37e-4 -0.592285,1.36e-4 z m 3.1779349,-0.369483 c 0.0042,-0.00346 -0.233487,-0.4884588 -0.528245,-1.0777779 l -0.535922,-1.0714891 -0.03691,0.0875 c -0.0203,0.048125 -0.183516,0.425 -0.362699,0.8375 -0.179182,0.4125 -0.355738,0.85125 -0.392346,0.975 -0.03661,0.12375 -0.07127,0.2390723 -0.07703,0.2562715 -0.0083,0.024853 0.188215,0.027989 0.957503,0.015278 0.532385,-0.0088 0.971429,-0.018823 0.975651,-0.022283 z"
     id="path1424"
     inkscape:connector-curvature="0" />
</svg>
